!! midi Test #27
!! Test of nine against seven against four against three against one rhythm.
**kern	**kern	**kern	**kern	**kern
*MM45	*MM45	*MM45	*MM45	*MM45
*M2/8	*M2/8	*M2/8	*M2/8	*M2/8
=1	=1	=1	=1	=1
28C	12cc	16e	4CCC	36ggg
.	.	.	.	36aaa
28D	.	.	.	.
.	.	.	.	36ggg
.	.	16d	.	.
28E	.	.	.	.
.	12cc	.	.	36aaa
28F	.	.	.	.
.	.	.	.	36ggg
.	.	16e	.	.
.	.	.	.	36aaa
28G	.	.	.	.
.	12g	.	.	36ggg
28E	.	.	.	.
.	.	16d	.	.
.	.	.	.	36aaa
28D	.	.	.	.
.	.	.	.	36ggg
=2	=2	=2	=2	=2
28C	12cc	16e	4CCC	36aaa
.	.	.	.	36ggg
28D	.	.	.	.
.	.	.	.	36aaa
.	.	16d	.	.
28E	.	.	.	.
.	12cc	.	.	36ggg
28F	.	.	.	.
.	.	.	.	36aaa
.	.	16e	.	.
.	.	.	.	36ggg
28G	.	.	.	.
.	12g	.	.	36aaa
28E	.	.	.	.
.	.	16d	.	.
.	.	.	.	36ggg
28D	.	.	.	.
.	.	.	.	36aaa
=3	=3	=3	=3	=3
28C	12cc	16e	4CCC	36ggg
.	.	.	.	36aaa
28D	.	.	.	.
.	.	.	.	36ggg
.	.	16d	.	.
28E	.	.	.	.
.	12cc	.	.	36aaa
28F	.	.	.	.
.	.	.	.	36ggg
.	.	16e	.	.
.	.	.	.	36aaa
28G	.	.	.	.
.	12g	.	.	36ggg
28E	.	.	.	.
.	.	16d	.	.
.	.	.	.	36aaa
28D	.	.	.	.
.	.	.	.	36ggg
=4	=4	=4	=4	=4
28C	12cc	16e	4CCC	36aaa
.	.	.	.	36ggg
28D	.	.	.	.
.	.	.	.	36aaa
.	.	16d	.	.
28E	.	.	.	.
.	12cc	.	.	36ggg
28F	.	.	.	.
.	.	.	.	36aaa
.	.	16e	.	.
.	.	.	.	36ggg
28G	.	.	.	.
.	12g	.	.	36aaa
28E	.	.	.	.
.	.	16d	.	.
.	.	.	.	36ggg
28D	.	.	.	.
.	.	.	.	36aaa
=5	=5	=5	=5	=5
28C	12cc	16e	4CCC	36ggg
.	.	.	.	36aaa
28D	.	.	.	.
.	.	.	.	36ggg
.	.	16d	.	.
28E	.	.	.	.
.	12cc	.	.	36aaa
28F	.	.	.	.
.	.	.	.	36ggg
.	.	16e	.	.
.	.	.	.	36aaa
28G	.	.	.	.
.	12g	.	.	36ggg
28E	.	.	.	.
.	.	16d	.	.
.	.	.	.	36aaa
28D	.	.	.	.
.	.	.	.	36ggg
=6	=6	=6	=6	=6
28C	12cc	16e	4CCC	36aaa
.	.	.	.	36ggg
28D	.	.	.	.
.	.	.	.	36aaa
.	.	16d	.	.
28E	.	.	.	.
.	12cc	.	.	36ggg
28F	.	.	.	.
.	.	.	.	36aaa
.	.	16e	.	.
.	.	.	.	36ggg
28G	.	.	.	.
.	12g	.	.	36aaa
28E	.	.	.	.
.	.	16d	.	.
.	.	.	.	36ggg
28D	.	.	.	.
.	.	.	.	36aaa
=7	=7	=7	=7	=7
28C	12cc	16e	4CCC	36ggg
.	.	.	.	36aaa
28D	.	.	.	.
.	.	.	.	36ggg
.	.	16d	.	.
28E	.	.	.	.
.	12cc	.	.	36aaa
28F	.	.	.	.
.	.	.	.	36ggg
.	.	16e	.	.
.	.	.	.	36aaa
28G	.	.	.	.
.	12g	.	.	36ggg
28E	.	.	.	.
.	.	16d	.	.
.	.	.	.	36aaa
28D	.	.	.	.
.	.	.	.	36ggg
=8	=8	=8	=8	=8
28C	12cc	16e	4CCC	36aaa
.	.	.	.	36ggg
28D	.	.	.	.
.	.	.	.	36aaa
.	.	16d	.	.
28E	.	.	.	.
.	12cc	.	.	36ggg
28F	.	.	.	.
.	.	.	.	36aaa
.	.	16e	.	.
.	.	.	.	36ggg
28G	.	.	.	.
.	12g	.	.	36aaa
28E	.	.	.	.
.	.	16d	.	.
.	.	.	.	36ggg
28D	.	.	.	.
.	.	.	.	36aaa
=9	=9	=9	=9	=9
28C	12cc	16e	4CCC	36ggg
.	.	.	.	36aaa
28D	.	.	.	.
.	.	.	.	36ggg
.	.	16d	.	.
28E	.	.	.	.
.	12cc	.	.	36aaa
28F	.	.	.	.
.	.	.	.	36ggg
.	.	16e	.	.
.	.	.	.	36aaa
28G	.	.	.	.
.	12g	.	.	36ggg
28E	.	.	.	.
.	.	16d	.	.
.	.	.	.	36aaa
28D	.	.	.	.
.	.	.	.	36ggg
=10	=10	=10	=10	=10
28C	12cc	16e	4CCC	36aaa
.	.	.	.	36ggg
28D	.	.	.	.
.	.	.	.	36aaa
.	.	16d	.	.
28E	.	.	.	.
.	12cc	.	.	36ggg
28F	.	.	.	.
.	.	.	.	36aaa
.	.	16e	.	.
.	.	.	.	36ggg
28G	.	.	.	.
.	12g	.	.	36aaa
28E	.	.	.	.
.	.	16d	.	.
.	.	.	.	36ggg
28D	.	.	.	.
.	.	.	.	36aaa
=11	=11	=11	=11	=11
28C	12cc	16e	4CCC	36ggg
.	.	.	.	36aaa
28D	.	.	.	.
.	.	.	.	36ggg
.	.	16d	.	.
28E	.	.	.	.
.	12cc	.	.	36aaa
28F	.	.	.	.
.	.	.	.	36ggg
.	.	16e	.	.
.	.	.	.	36aaa
28G	.	.	.	.
.	12g	.	.	36ggg
28E	.	.	.	.
.	.	16d	.	.
.	.	.	.	36aaa
28D	.	.	.	.
.	.	.	.	36ggg
=12	=12	=12	=12	=12
28C	12cc	16e	4CCC	36aaa
.	.	.	.	36ggg
28D	.	.	.	.
.	.	.	.	36aaa
.	.	16d	.	.
28E	.	.	.	.
.	12cc	.	.	36ggg
28F	.	.	.	.
.	.	.	.	36aaa
.	.	16e	.	.
.	.	.	.	36ggg
28G	.	.	.	.
.	12g	.	.	36aaa
28E	.	.	.	.
.	.	16d	.	.
.	.	.	.	36ggg
28D	.	.	.	.
.	.	.	.	36aaa
=13	=13	=13	=13	=13
28C	12cc	16e	4CCC	36ggg
.	.	.	.	36aaa
28D	.	.	.	.
.	.	.	.	36ggg
.	.	16d	.	.
28E	.	.	.	.
.	12cc	.	.	36aaa
28F	.	.	.	.
.	.	.	.	36ggg
.	.	16e	.	.
.	.	.	.	36aaa
28G	.	.	.	.
.	12g	.	.	36ggg
28E	.	.	.	.
.	.	16d	.	.
.	.	.	.	36aaa
28D	.	.	.	.
.	.	.	.	36ggg
=14	=14	=14	=14	=14
28C	12cc	16e	4CCC	36aaa
.	.	.	.	36ggg
28D	.	.	.	.
.	.	.	.	36aaa
.	.	16d	.	.
28E	.	.	.	.
.	12cc	.	.	36ggg
28F	.	.	.	.
.	.	.	.	36aaa
.	.	16e	.	.
.	.	.	.	36ggg
28G	.	.	.	.
.	12g	.	.	36aaa
28E	.	.	.	.
.	.	16d	.	.
.	.	.	.	36ggg
28D	.	.	.	.
.	.	.	.	36aaa
=15	=15	=15	=15	=15
28C	12cc	16e	4CCC	36ggg
.	.	.	.	36aaa
28D	.	.	.	.
.	.	.	.	36ggg
.	.	16d	.	.
28E	.	.	.	.
.	12cc	.	.	36aaa
28F	.	.	.	.
.	.	.	.	36ggg
.	.	16e	.	.
.	.	.	.	36aaa
28G	.	.	.	.
.	12g	.	.	36ggg
28E	.	.	.	.
.	.	16d	.	.
.	.	.	.	36aaa
28D	.	.	.	.
.	.	.	.	36ggg
=16	=16	=16	=16	=16
28C	12cc	16e	4CCC	36aaa
.	.	.	.	36ggg
28D	.	.	.	.
.	.	.	.	36aaa
.	.	16d	.	.
28E	.	.	.	.
.	12cc	.	.	36ggg
28F	.	.	.	.
.	.	.	.	36aaa
.	.	16e	.	.
.	.	.	.	36ggg
28G	.	.	.	.
.	12g	.	.	36aaa
28E	.	.	.	.
.	.	16d	.	.
.	.	.	.	36ggg
28D	.	.	.	.
.	.	.	.	36aaa
=17	=17	=17	=17	=17
28C	12cc	16e	4CCC	36ggg
.	.	.	.	36aaa
28D	.	.	.	.
.	.	.	.	36ggg
.	.	16d	.	.
28E	.	.	.	.
.	12cc	.	.	36aaa
28F	.	.	.	.
.	.	.	.	36ggg
.	.	16e	.	.
.	.	.	.	36aaa
28G	.	.	.	.
.	12g	.	.	36ggg
28E	.	.	.	.
.	.	16d	.	.
.	.	.	.	36aaa
28D	.	.	.	.
.	.	.	.	36ggg
=18	=18	=18	=18	=18
28C	12cc	16e	4CCC	36aaa
.	.	.	.	36ggg
28D	.	.	.	.
.	.	.	.	36aaa
.	.	16d	.	.
28E	.	.	.	.
.	12cc	.	.	36ggg
28F	.	.	.	.
.	.	.	.	36aaa
.	.	16e	.	.
.	.	.	.	36ggg
28G	.	.	.	.
.	12g	.	.	36aaa
28E	.	.	.	.
.	.	16d	.	.
.	.	.	.	36ggg
28D	.	.	.	.
.	.	.	.	36aaa
=19	=19	=19	=19	=19
28C	12cc	16e	4CCC	36ggg
.	.	.	.	36aaa
28D	.	.	.	.
.	.	.	.	36ggg
.	.	16d	.	.
28E	.	.	.	.
.	12cc	.	.	36aaa
28F	.	.	.	.
.	.	.	.	36ggg
.	.	16e	.	.
.	.	.	.	36aaa
28G	.	.	.	.
.	12g	.	.	36ggg
28E	.	.	.	.
.	.	16d	.	.
.	.	.	.	36aaa
28D	.	.	.	.
.	.	.	.	36ggg
=20	=20	=20	=20	=20
28C	12cc	16e	4CCC	36aaa
.	.	.	.	36ggg
28D	.	.	.	.
.	.	.	.	36aaa
.	.	16d	.	.
28E	.	.	.	.
.	12cc	.	.	36ggg
28F	.	.	.	.
.	.	.	.	36aaa
.	.	16e	.	.
.	.	.	.	36ggg
28G	.	.	.	.
.	12g	.	.	36aaa
28E	.	.	.	.
.	.	16d	.	.
.	.	.	.	36ggg
28D	.	.	.	.
.	.	.	.	36aaa
=21	=21	=21	=21	=21
28C	12cc	16e	4CCC	36ggg
.	.	.	.	36aaa
28D	.	.	.	.
.	.	.	.	36ggg
.	.	16d	.	.
28E	.	.	.	.
.	12cc	.	.	36aaa
28F	.	.	.	.
.	.	.	.	36ggg
.	.	16e	.	.
.	.	.	.	36aaa
28G	.	.	.	.
.	12g	.	.	36ggg
28E	.	.	.	.
.	.	16d	.	.
.	.	.	.	36aaa
28D	.	.	.	.
.	.	.	.	36ggg
=22	=22	=22	=22	=22
28C	12cc	16e	4CCC	36aaa
.	.	.	.	36ggg
28D	.	.	.	.
.	.	.	.	36aaa
.	.	16d	.	.
28E	.	.	.	.
.	12cc	.	.	36ggg
28F	.	.	.	.
.	.	.	.	36aaa
.	.	16e	.	.
.	.	.	.	36ggg
28G	.	.	.	.
.	12g	.	.	36aaa
28E	.	.	.	.
.	.	16d	.	.
.	.	.	.	36ggg
28D	.	.	.	.
.	.	.	.	36aaa
=23	=23	=23	=23	=23
28C	12cc	16e	4CCC	36ggg
.	.	.	.	36aaa
28D	.	.	.	.
.	.	.	.	36ggg
.	.	16d	.	.
28E	.	.	.	.
.	12cc	.	.	36aaa
28F	.	.	.	.
.	.	.	.	36ggg
.	.	16e	.	.
.	.	.	.	36aaa
28G	.	.	.	.
.	12g	.	.	36ggg
28E	.	.	.	.
.	.	16d	.	.
.	.	.	.	36aaa
28D	.	.	.	.
.	.	.	.	36ggg
=24	=24	=24	=24	=24
28C	12cc	16e	4CCC	36aaa
.	.	.	.	36ggg
28D	.	.	.	.
.	.	.	.	36aaa
.	.	16d	.	.
28E	.	.	.	.
.	12cc	.	.	36ggg
28F	.	.	.	.
.	.	.	.	36aaa
.	.	16e	.	.
.	.	.	.	36ggg
28G	.	.	.	.
.	12g	.	.	36aaa
28E	.	.	.	.
.	.	16d	.	.
.	.	.	.	36ggg
28D	.	.	.	.
.	.	.	.	36aaa
=25	=25	=25	=25	=25
4C	4cc	4e	4CCC	4ggg
====	====	====	====	====
*-	*-	*-	*-	*-
